X: 1
T: Johnny O'Leary's
M: 12/8
L: 1/8
R: slide
K: Gmaj
e2 A ABd e2 d B2 d|e2 A ABA G2 A B2 d|
e2 A ABd BAB d2 B|G2 B d2 B A2 f g2 f|
e2 A ABd e2 d B2 d|e2 A ABA G2 A B2 d|
e2 A ABd BAB d2 B|G2 B d2 B A3 ABd|
efg a2 b a2 g e2d|Bcd e2 f g2 a f2 g|
e2 a a2 b a2 g e2 d|BAB d2 B A3 ABd|
efg a2 b a2 g e2d|Bcd e2 f g2 e f2 d|
efg a2 b a2 g e2 d|BAB d2 B A3 A2z|
